X: 39203
T: Swiss, The
R: reel
M: 4/4
K: Gmajor
Bd|:eddB d2 Bd|eddB AGBd|eddB dBGB|1 ABAF G2 Bd:|2 ABAF G2 G2||
|:DBB/B/A B2 GA|BGAG E2 D2|DBB/B/A BAGB|ABAF G2 G2:|

